X:1
T:On This Morn We See the Dawning
T:On This Morn We See the Dawning
T:John Zundel, 1870
T:Richard W. Adams, 2006
T:© 2006 Richard W. Adams. Reproduce or publish freely for Christian worship or devotions. Courtesy of the Cyber Hymnal™
T:© 2006 Richard W. Adams. Reproduce or publish freely for Christian worship or devotions. Courtesy of the Cyber Hymnal™
C:John Zundel, 1870
Z:© 2006 Richard W. Adams. Reproduce or publish freely for Christian worship or devotions.
Z:Courtesy of the Cyber Hymnal™
%%score ( 1 2 ) ( 3 4 )
L:1/8
Q:1/4=112
M:4/4
K:Bb
V:1 treble 
V:2 treble 
V:3 bass 
V:4 bass 
V:1
 [DF]2 [DF]2 [EG]2 [DF]2 | [Fd]2 ([Ec][Fd]) [Ec]2 [DB]2 | [FA]2 [EG]2 [GB]2 [EG]2 | %3
w: 1.~On this morn we|see the * dawn- ing|Of a bright and|
w: 2.~See, the emp- ty|se- pulcher * greets them,|Hea- vy rock now|
w: 3.~From the tomb a|light is * stream- ing,|Prov- ing faith is|
w: 4.~From the si- lent,|stone cold * pri- son,|God e- rupts in|
 [DF]2 (EF) [B,D]4 | [DF]2 [DF]2 [EG]2 [DF]2 | [Fd]2 ([Ec][Fd]) [Ec]2 [DB]2 | %6
w: glor- ious * Sun;|Night is ban- ished,|sha- dows * flee- ing,|
w: rolled a- * way;|No more sol- diers,|nor a * bo- dy,|
w: not in * vain;|In the morn- ing|joy be- * friends us,|
w: glor- ious * might;|Suf- fering o- ver,|Christ has * ris- en,|
 [EG]2 [Ge]2 [Fd]2 [FB]2 | [EA]2 (GA) [DB]4 | [DB]2 [GB]2 [GB]2 [^FA]2 | G2 (AG) [D^F]2 D2 | %10
w: De- mons scat- ter,|de- vils * run.|To the gar- den|come the * wo- men,|
w: On- ly grave cloths|where He * lay.|Seal of Cae- sar|could not * hold Him,|
w: Sac- red mys- tery|now made * plain.|Can it be? The|dead is * liv- ing?|
w: Ends the age of|gloom and * night.|Death, the fi- nal|en- emy, * con- quered,|
 [Dd]2 [Fd]2 [Ge]2 [Fd]2 | [Fc]2 (cd) c4 | [DF]2 [DF]2 [EG]2 [DF]2 | [Fd]2 ([Ec][Fd]) [Ec]2 [DB]2 | %14
w: Bring- ing spic- es|for the * dead,|Won- dering how to|plead with * sol- diers,|
w: Nor a might- y|door of * stone;|King of kings, the|Lord has * tri- umphed,|
w: Yes, the Son has|hell over- * come;|An- gel mes- sen-|ger pro- * claim- ing:|
w: Now we no more|fear the * grave;|Je- sus died in|place of * sin- ners,|
 [EG]2 [Ge]2 [Fd]2 [FB]2 | [EA]2 (GA) [DB]4 |] %16
w: Guards of em- pire,|armed and * dread.|
w: He has tram- pled|Sa- tan’s * throne.|
w: “See the power of|death un- * done!”|
w: And He lives, al-|might- y~to * save.|
V:2
 x8 | x8 | x8 | x2 C2 x4 | x8 | x8 | x8 | x2 E2 x4 | x8 | G2 D2 x D2 x | x8 | x2 =E2 (F2 _E2) | %12
 x8 | x8 | x8 | x2 E2 x4 |] %16
V:3
 [B,,F,]2 [B,,F,]2 [B,,G,]2 [B,,F,]2 | [B,,B,]2 [F,A,]2 [F,A,]2 [B,,B,]2 | %2
 [E,B,]2 [E,B,]2 [E,B,]2 [E,B,]2 | [F,B,]2 [F,,A,]2 [B,,F,]4 | %4
 [B,,F,]2 [B,,F,]2 [B,,G,]2 [B,,F,]2 | [B,,B,]2 [F,A,]2 [^F,A,]2 [G,B,]2 | %6
 [E,B,]2 [E,B,]2 [F,B,]2 [F,D]2 | [F,C]2 [F,,F,]2 [B,,F,]4 | [G,,G,]2 [G,D]2 [D,D]2 [D,C]2 | %9
 [D,B,]2 (CB,) [D,A,]2 D,2 | [B,,B,]2 [B,,B,]2 B,2 [B,,B,]2 | [C,A,]2 [C,B,]2 [F,A,]4 | %12
 [B,,F,]2 [B,,F,]2 [B,,G,]2 [B,,F,]2 | [B,,B,]2 [F,A,]2 [^F,A,]2 [G,B,]2 | %14
 [E,B,]2 [E,B,]2 [F,B,]2 [F,D]2 | [F,C]2 [F,,F,]2 [B,,F,]4 |] %16
V:4
 x8 | x8 | x8 | x8 | x8 | x8 | x8 | x8 | x8 | x2 D,2 x D,2 x | x4 B,2 x2 | x8 | x8 | x8 | x8 | %15
 x8 |] %16

